!!!SOCIAL_FUNCTION: tick dance songs
!!!SOCIAL_FUNCTION2: bullet game
!!!PDT:	1943
!!!LING_GROUP: Muskogean
!!!LANG: Non-Tone
Specific Region: Oklahoma, California, Mississippi, Louisiana, Texas, Alabama
!!!REG: Southeast
!!!COM: Anon.
!!!OTL: Bullet Game Song (c)
!!!ODT: <1933//
!!!MPN: Lysander Tubby
!!!MLC: Philadelphia, Mississippi, United States of America
!! Song was recorded in January 1933.
!!!AGN: monody
!!!AMT: irregular
!!!RWG: Transcribed pitches, durations, and meters are only approximate.
**kern
*ICvox
*Imale
*clefF4
*k[f#c#g#d#]
*M2/4
*MM63
=1-
8E
16E
16E
8F#
8E
=2
8.F#
16G#
16F#
16F#
16F#
16r
=3
8E
8E
8.E
16C#
=4
8C#
16E
16E
8E
8C#
=5
4E
16E
16E
16F#
16r
=6
!! repeated from beginning
8E
16E
16E
8E
8r
=7
8E
16E
16E
8F#
8E
=8
8.F#
16G#
16F#
16F#
16F#
16r
=9
8E
8E
8.E
16C#
=10
8C#
16E
16E
8E
8C#
=11
4E
16E
16E
16F#
16r
=12
8E
16E
16E
8E
8r
==
*-
!!!CNT: Choctaw
!!!TXO: Choctaw
!!!OCY: United States
!!!OCL: Frances Densmore
!!!YOR: Frances Densmore, "Choctaw Music"
!!!YOR: Bulletin 136, page 134, No. 9
!!!PPR: Smithsonian Institution, Bureau of American Ethnology
!!!PPR: Government Printing Office
!!!PDT: 1943
!!!PPP: Washington, DC, United States of America
!!!YEC: Electronic Copyright 2000 David Huron
!!!YER: August 2000
!!!YEN: United States of America
!!!ENC: David Huron
!!!RDT: August 27, 2000
!!!EEV: Release 1.0
!!!AIN: vox
